resources/svg/regular/news.svg

<svg xmlns="http://www.w3.org/2000/svg" fill="currentColor" stroke="none" viewBox="0 0 24 24"><path d="M19.875 3H4.125C2.953 3 2 3.897 2 5v14c0 1.103.953 2 2.125 2h15.75C21.047 21 22 20.103 22 19V5c0-1.103-.953-2-2.125-2zm0 16H4.125c-.057 0-.096-.016-.113-.016-.007 0-.011.002-.012.008L3.988 5.046c.007-.01.052-.046.137-.046h15.75c.079.001.122.028.125.008l.012 13.946c-.007.01-.052.046-.137.046z"/><path d="M6 7h6v6H6zm7 8H6v2h12v-2h-4zm1-4h4v2h-4zm0-4h4v2h-4z"/></svg>

<svg xmlns="http://www.w3.org/2000/svg" fill="currentColor" stroke="none" viewBox="0 0 24 24"><path d="M19.875,3H4.125C2.953,3,2,3.897,2,5v14c0,1.103,0.953,2,2.125,2h15.75C21.047,21,22,20.103,22,19V5 C22,3.897,21.047,3,19.875,3z M19.875,19H4.125c-0.057,0-0.096-0.016-0.113-0.016c-0.007,0-0.011,0.002-0.012,0.008L3.988,5.046 C3.995,5.036,4.04,5,4.125,5h15.75C19.954,5.001,19.997,5.028,20,5.008l0.012,13.946C20.005,18.964,19.96,19,19.875,19z"/><path d="M6 7H12V13H6zM13 15L6 15 6 17 13 17 14 17 18 17 18 15 14 15zM14 11H18V13H14zM14 7H18V9H14z"/></svg>
